images/logo.svg

<svg width="141" height="32" viewBox="0 0 141 32" fill="none" xmlns="http://www.w3.org/2000/svg">
<path d="M27.7627 17.5691L42.3773 4.77443L32.5999 3.67468L27.7627 17.5691Z" fill="#F2BE97"/>
<path d="M14.0486 14.3235L9.03125 25.5892L11.2955 31.9999L18.8344 25.4014L14.0486 14.3235Z" fill="#F2BE97"/>
<path d="M1.10639 3.03101L1.64672 4.6404L6.35529 18.0251L13.9971 3.03101L21.9734 18.3202L27.248 3.05784L0 0L1.08066 3.03101H1.10639Z" fill="#F2BE97"/>
<path d="M72.327 19.1248H64.2993C64.428 19.7954 64.7882 20.3587 65.3285 20.761C65.9203 21.1634 66.615 21.378 67.3354 21.3512C67.85 21.3512 68.3389 21.2707 68.802 21.1097C69.2395 20.922 69.6511 20.6537 69.9856 20.305L71.6323 22.1827C70.6289 23.3897 69.1623 23.9798 67.2583 23.9798C66.1519 24.0066 65.0712 23.7384 64.0935 23.2556C63.2187 22.7996 62.4725 22.0754 61.9579 21.1902C61.4433 20.305 61.186 19.2858 61.2117 18.2397C61.186 17.2204 61.4433 16.2011 61.9579 15.3159C62.4468 14.4576 63.1415 13.7602 63.9906 13.2774C64.8654 12.7946 65.8688 12.5263 66.8723 12.5532C67.85 12.5263 68.8278 12.7677 69.7026 13.2506C70.526 13.7066 71.2207 14.404 71.6838 15.2355C72.1727 16.1475 72.43 17.2204 72.4042 18.2665C72.3785 18.3201 72.3528 18.5884 72.327 19.1248ZM65.1484 15.5842C64.6595 16.0133 64.3508 16.6035 64.2736 17.274H69.4968C69.4196 16.6303 69.1108 16.0133 68.6219 15.611C68.1331 15.1818 67.5156 14.9672 66.898 14.9941C66.2548 14.9404 65.6373 15.155 65.1484 15.5842Z" fill="#50406B"/>
<path d="M74.4365 9.41492H77.5241V23.7653H74.4365V9.41492Z" fill="#50406B"/>
<path d="M80.3804 9.41492H83.468V23.7653H80.3804V9.41492Z" fill="#50406B"/>
<path d="M95.9469 13.7603C96.7445 14.5919 97.1562 15.7989 97.1562 17.4083V23.7385H94.0686V17.9179C94.1201 17.2205 93.9142 16.5231 93.5026 15.9598C93.0909 15.5038 92.4991 15.2624 91.9073 15.3161C91.2126 15.2893 90.5436 15.5575 90.0548 16.0671C89.5402 16.6841 89.3086 17.4887 89.3601 18.2934V23.7922H86.2725V12.6874H89.2057V13.9749C89.6174 13.4921 90.1577 13.1434 90.7237 12.902C91.367 12.6338 92.036 12.4996 92.7049 12.5265C93.94 12.4728 95.0978 12.9288 95.9469 13.7603Z" fill="#50406B"/>
<path d="M110.278 12.6873L105.801 23.7652H102.637L98.1597 12.6873H101.324L104.258 20.2246L107.32 12.6873H110.278Z" fill="#50406B"/>
<path d="M121.6 19.1248H113.546C113.675 19.7954 114.035 20.3587 114.576 20.761C115.167 21.1634 115.862 21.378 116.583 21.3512C117.097 21.3512 117.586 21.2707 118.049 21.1097C118.487 20.922 118.898 20.6537 119.233 20.305L120.879 22.1827C119.876 23.3897 118.409 23.9798 116.505 23.9798C115.399 24.0066 114.318 23.7384 113.341 23.2556C112.466 22.7996 111.72 22.0754 111.205 21.1902C110.69 20.305 110.433 19.2858 110.459 18.2397C110.433 17.2204 110.69 16.2011 111.205 15.3159C111.694 14.4576 112.389 13.7602 113.238 13.2774C114.112 12.7946 115.116 12.5263 116.119 12.5532C117.097 12.5263 118.075 12.7677 118.95 13.2506C119.773 13.7066 120.468 14.404 120.931 15.2355C121.42 16.1475 121.677 17.2204 121.651 18.2665C121.651 18.3201 121.626 18.5884 121.6 19.1248ZM114.421 15.5842C113.932 16.0133 113.624 16.6035 113.546 17.274H118.718C118.641 16.6303 118.332 16.0133 117.843 15.611C117.354 15.1818 116.737 14.9672 116.119 14.9941C115.476 14.9672 114.884 15.2087 114.395 15.611L114.421 15.5842Z" fill="#50406B"/>
<path d="M141 23.2288C140.665 23.4702 140.28 23.658 139.894 23.7653C139.43 23.8726 138.967 23.953 138.504 23.953C137.449 24.0335 136.394 23.658 135.571 22.9606C134.851 22.1827 134.465 21.083 134.542 20.01V15.4501H132.895V12.9824H134.542V9.49536H137.629V12.9824H140.254V15.4501H137.629V19.9296C137.604 20.3319 137.732 20.7074 137.964 21.0025C138.221 21.2707 138.556 21.4048 138.916 21.378C139.353 21.4048 139.791 21.2439 140.151 20.9757L141 23.2288Z" fill="#50406B"/>
<path d="M131.66 18.508C131.274 18.0789 130.785 17.757 130.219 17.5692C129.525 17.3546 128.804 17.1937 128.084 17.0596C127.518 16.9791 126.952 16.845 126.386 16.6572C126.077 16.5768 125.845 16.2817 125.845 15.933C125.845 15.6111 126.051 15.3161 126.334 15.182C126.797 14.9674 127.312 14.8601 127.826 14.8869C128.856 14.8333 129.911 14.9942 130.888 15.3429V12.9556C130.631 12.8752 130.374 12.7947 130.065 12.7142C129.319 12.5533 128.573 12.446 127.826 12.446C126.926 12.4192 126.025 12.5801 125.202 12.902C124.533 13.1434 123.941 13.5994 123.53 14.1627C123.144 14.6991 122.938 15.3429 122.938 16.0135C122.886 16.7109 123.118 17.4083 123.555 17.9447C123.967 18.4007 124.456 18.7226 125.022 18.8836C125.717 19.0981 126.437 19.2591 127.183 19.3932C127.749 19.4468 128.29 19.5541 128.83 19.7419C129.139 19.8224 129.344 20.0906 129.37 20.4125C129.37 21.083 128.727 21.4049 127.415 21.4049C126.797 21.4049 126.18 21.3513 125.562 21.244C125.073 21.1635 124.533 21.0026 123.761 20.788V23.1753C124.07 23.3094 124.404 23.4167 124.713 23.4971C125.562 23.7117 126.437 23.8458 127.286 23.8458C128.212 23.8727 129.113 23.7117 129.988 23.3898C130.657 23.1484 131.274 22.7193 131.712 22.156C132.098 21.6195 132.303 20.9758 132.303 20.332C132.303 19.7419 132.098 19.0445 131.66 18.508Z" fill="#50406B"/>
<path d="M62.009 9.38818L61.9061 9.65641L57.0174 23.7654H54.0328L51.6399 15.1552L49.1955 23.7654H46.2109L42.4028 12.6874H45.3103L47.8061 20.1711L50.199 11.1585H53.2094L55.5508 20.1711L59.2817 9.38818H62.009Z" fill="#50406B"/>
</svg>

<svg width="141" height="32" fill="none" xmlns="http://www.w3.org/2000/svg">
  <path d="M27.763 17.57L42.377 4.773l-9.777-1.1-4.837 13.895zM14.049 14.323L9.03 25.59 11.295 32l7.54-6.598-4.786-11.078z" fill="#F2BE97"/>
  <path d="M1.106 3.031l.54 1.61 4.71 13.384 7.641-14.994 7.976 15.29 5.275-15.263L0 0l1.08 3.031h.026z" fill="#F2BE97"/>
  <path d="M72.327 19.125h-8.028c.129.67.49 1.234 1.03 1.636a3.34 3.34 0 002.006.59c.515 0 1.004-.08 1.467-.241a3.61 3.61 0 001.184-.805l1.646 1.878c-1.003 1.207-2.47 1.797-4.374 1.797a6.785 6.785 0 01-3.164-.724 5.368 5.368 0 01-2.136-2.066 5.587 5.587 0 01-.746-2.95 5.557 5.557 0 01.746-2.924 5.408 5.408 0 012.033-2.039 5.697 5.697 0 012.881-.724 5.548 5.548 0 012.83.698 5.136 5.136 0 011.982 1.985c.489.912.746 1.984.72 3.03-.025.054-.051.322-.077.859zm-7.179-3.54a2.621 2.621 0 00-.874 1.689h5.223c-.077-.644-.386-1.26-.875-1.663a2.452 2.452 0 00-1.724-.617 2.337 2.337 0 00-1.75.59zM74.436 9.415h3.088v14.35h-3.088V9.415zM80.38 9.415h3.088v14.35H80.38V9.415zM95.947 13.76c.797.832 1.21 2.039 1.21 3.648v6.33h-3.088v-5.82a2.963 2.963 0 00-.566-1.958 1.928 1.928 0 00-1.596-.644 2.426 2.426 0 00-1.852.751c-.515.617-.746 1.422-.695 2.226v5.5h-3.088V12.686h2.934v1.288c.411-.483.952-.832 1.518-1.073a4.654 4.654 0 011.98-.375 4.339 4.339 0 013.243 1.233zM110.278 12.687l-4.477 11.078h-3.164L98.16 12.687h3.164l2.934 7.538 3.062-7.538h2.958zM121.6 19.125h-8.054c.129.67.489 1.234 1.03 1.636a3.337 3.337 0 002.007.59c.514 0 1.003-.08 1.466-.241a3.611 3.611 0 001.184-.805l1.646 1.878c-1.003 1.207-2.47 1.797-4.374 1.797a6.78 6.78 0 01-3.164-.724 5.37 5.37 0 01-2.136-2.066 5.58 5.58 0 01-.746-2.95 5.55 5.55 0 01.746-2.924 5.41 5.41 0 012.033-2.039 5.693 5.693 0 012.881-.724 5.55 5.55 0 012.831.698 5.138 5.138 0 011.981 1.985 6.18 6.18 0 01.72 3.03c0 .054-.025.322-.051.859zm-7.179-3.54a2.625 2.625 0 00-.875 1.689h5.172c-.077-.644-.386-1.26-.875-1.663a2.452 2.452 0 00-1.724-.617c-.643-.027-1.235.215-1.724.617l.026-.027zM141 23.229c-.335.241-.72.429-1.106.536-.464.108-.927.188-1.39.188-1.055.08-2.11-.295-2.933-.992a3.99 3.99 0 01-1.029-2.951v-4.56h-1.647v-2.468h1.647V9.495h3.087v3.487h2.625v2.468h-2.625v4.48a1.57 1.57 0 00.335 1.073c.257.268.592.402.952.375.437.027.875-.134 1.235-.402l.849 2.253zM131.66 18.508a3.338 3.338 0 00-1.441-.939 19.058 19.058 0 00-2.135-.51 9.74 9.74 0 01-1.698-.402.744.744 0 01-.541-.724c0-.322.206-.617.489-.751a3.172 3.172 0 011.492-.295 7.95 7.95 0 013.062.456v-2.387c-.257-.08-.514-.161-.823-.242-.746-.16-1.492-.268-2.239-.268a6.695 6.695 0 00-2.624.456 3.622 3.622 0 00-1.672 1.26 3.157 3.157 0 00-.592 1.851c-.052.698.18 1.395.617 1.932.412.456.901.778 1.467.939.695.214 1.415.375 2.161.51.566.053 1.107.16 1.647.348.309.08.514.349.54.67 0 .671-.643.993-1.955.993-.618 0-1.235-.054-1.853-.161-.489-.08-1.029-.241-1.801-.456v2.387c.309.134.643.242.952.322.849.215 1.724.349 2.573.349a7.168 7.168 0 002.702-.456 3.856 3.856 0 001.724-1.234c.386-.537.591-1.18.591-1.824a2.97 2.97 0 00-.643-1.824zM62.009 9.388l-.103.268-4.889 14.11h-2.984l-2.393-8.61-2.444 8.61H46.21l-3.808-11.079h2.907l2.496 7.484L50.2 11.16h3.01l2.342 9.012 3.73-10.783h2.728z" fill="#50406B"/>
</svg>
